SVG/industry.svg

<?xml version="1.0" encoding="utf-8"?>
<!-- Generated by IcoMoon.io -->
<!DOCTYPE svg PUBLIC "-//W3C//DTD SVG 1.1//EN" "http://www.w3.org/Graphics/SVG/1.1/DTD/svg11.dtd">
<svg version="1.1" xmlns="http://www.w3.org/2000/svg" xmlns:xlink="http://www.w3.org/1999/xlink" width="14" height="14" viewBox="0 0 14 14">
<path fill="#444444" d="M3.5 0q0.203 0 0.352 0.148t0.148 0.352v6.961l4.188-3.352q0.133-0.109 0.312-0.109 0.203 0 0.352 0.148t0.148 0.352v2.961l4.188-3.352q0.133-0.109 0.312-0.109 0.203 0 0.352 0.148t0.148 0.352v9q0 0.203-0.148 0.352t-0.352 0.148h-13q-0.203 0-0.352-0.148t-0.148-0.352v-13q0-0.203 0.148-0.352t0.352-0.148h3z"></path>
</svg>

<svg xmlns="http://www.w3.org/2000/svg" viewBox="0 0 14 14"><path d="M3.5 0q.203 0 .352.148T4 .5v6.96l4.188-3.35Q8.32 4 8.5 4q.203 0 .352.148T9 4.5v2.96l4.188-3.35Q13.32 4 13.5 4q.203 0 .352.148T14 4.5v9q0 .203-.148.352T13.5 14H.5q-.203 0-.352-.148T0 13.5V.5Q0 .297.148.148T.5 0h3z" /></svg>
